X: 796
T: Al Letanant Schnitt O Kimiadin Ar 5ved Kompagnunez
R: reel
M: 4/4
K: Aminor
G|:!slide!AA A{/Bc}B A2 {/GA}G2|c>B {/AB}AG .A(B AG)|!slide!AA AB A2 {/GA}G2|1 [M:6/4]!slide!c>B {/AB}AG (A/B/)c d3d2G:|2 [M:6/4]!slide!c>B AG (A/B/)c d3d2A|:
[M:4/4](de) fd {/ga}g2 (f/e/)d|c>B {/B/}AG AB {/AB}AG|de (fd) g2 (f/e/)d|1 [M:6/4]AB {/cd}(c/B/)A GA d3d2A:|2 [M:6/4]AB cA (GA) d3d2z||

